dist/svg/u1F393.svg

<?xml version="1.0" encoding="UTF-8"?><svg id="a" xmlns="http://www.w3.org/2000/svg" viewBox="0 0 40 40"><rect width="40" height="40" fill="none"/><g><path id="b" d="M32.833,26.58c0,3.667-5.667,7.167-12.833,7.167s-12.833-3.667-12.833-7.167v-9.167l12.833-3.833,12.833,3.667v9.333Z" fill="#4e5968" fill-rule="evenodd"/><path id="c" d="M1.667,13.247L18.333,3.58c1-.667,2.333-.667,3.333,0l16.667,9.667c1.167,.667,1.167,2.167,0,2.833l-16.667,9.667c-1,.667-2.333,.667-3.333,0L1.667,16.08c-1.167-.667-1.167-2.167,0-2.833" fill="#6b7683" fill-rule="evenodd"/><path id="d" d="M20.5,13.747l-1.833-1.5-11.667,7.333h0v14h0c0,.667,.5,1.167,1.167,1.167s1.167-.5,1.167-1.167h0v-12.833l11.167-7Z" fill="#ffc100" fill-rule="evenodd"/><path id="e" d="M22.667,12.747c0,1-1.167,1.833-2.667,1.833s-2.667-.833-2.667-1.833,1.167-1.833,2.667-1.833c1.5-.167,2.667,.833,2.667,1.833" fill="#303d4c" fill-rule="evenodd"/><path d="M8.333,30.08c-1.333,0-2.333,1-2.333,2.167v3.462c0,.519,1.038,1.212,2.25,1.212s2.25-.519,2.25-1.212v-3.462c0-1.167-.833-2.167-2.167-2.167Z" fill="#ffda16" fill-rule="evenodd"/></g></svg>

<svg id="Layer_1" data-name="Layer 1" xmlns="http://www.w3.org/2000/svg" viewBox="0 0 40 40"><defs><style>.cls-1{fill:none;}.cls-2{fill:#4e5968;}.cls-2,.cls-3,.cls-4,.cls-5,.cls-6{fill-rule:evenodd;}.cls-3{fill:#6b7683;}.cls-4{fill:#ffc100;}.cls-5{fill:#303d4c;}.cls-6{fill:#ffda16;}</style></defs><rect class="cls-1" width="40" height="40"/><path id="Fill-3" class="cls-2" d="M32.833,26.58c0,3.667-5.666,7.167-12.833,7.167S7.167,30.08,7.167,26.58V17.413L20,13.58l12.833,3.667Z"/><path id="Fill-5" class="cls-3" d="M1.667,13.247,18.333,3.58a3.028,3.028,0,0,1,3.334,0l16.666,9.667a1.584,1.584,0,0,1,0,2.833L21.667,25.747a3.031,3.031,0,0,1-3.334,0L1.667,16.08a1.584,1.584,0,0,1,0-2.833"/><path id="Fill-7" class="cls-4" d="M20.5,13.747l-1.833-1.5L7,19.58H7v14H7a1.167,1.167,0,1,0,2.333,0h0V20.747Z"/><path id="Fill-9" class="cls-5" d="M22.667,12.747c0,1-1.167,1.833-2.667,1.833s-2.667-.833-2.667-1.833S18.5,10.913,20,10.913a2.244,2.244,0,0,1,2.667,1.834"/><path class="cls-6" d="M8.333,30.08A2.246,2.246,0,0,0,6,32.247v3.461c0,.52,1.038,1.212,2.25,1.212s2.25-.519,2.25-1.212V32.247A2.1,2.1,0,0,0,8.333,30.08Z"/></svg>
